<?xml version="1.0" encoding="UTF-8"?>
<map version="1.10" tiledversion="1.11.2" orientation="orthogonal" renderorder="right-down" width="20" height="20" tilewidth="16" tileheight="16" infinite="0" nextlayerid="5" nextobjectid="1">
 <tileset firstgid="1" source="Cozy Interior 2.tsx"/>
 <tileset firstgid="163" source="tileset.tsx"/>
 <tileset firstgid="1463" source="Cozy Interior 5.tsx"/>
 <tileset firstgid="1697" source="Cozy Interior 4.tsx"/>
 
 <layer id="1" name="Tile Layer 1" width="20" height="20">
  <data encoding="csv">
0,0,0,0,0,0,0,0,0,0,0,0,0,0,0,0,0,0,0,0,
0,119,119,119,119,119,119,119,119,119,119,119,119,119,119,119,119,119,119,0,
0,119,47,65,47,47,47,47,47,47,47,47,47,47,47,47,47,47,119,0,
0,119,65,65,47,47,65,65,65,65,65,66,47,47,47,47,47,47,119,0,
0,119,65,65,65,65,65,65,65,65,65,65,65,65,65,65,65,66,119,0,
0,119,83,83,83,83,83,83,83,83,83,83,83,83,83,83,83,84,119,0,
0,119,115,115,115,115,115,115,115,115,116,115,115,115,115,115,115,116,119,0,
0,119,115,116,115,115,116,116,115,115,115,115,116,116,116,115,115,116,119,0,
0,119,115,116,116,116,115,116,116,116,115,115,116,115,115,115,115,116,119,0,
0,119,115,116,116,116,115,116,116,115,115,115,116,115,115,115,115,116,119,0,
0,119,115,115,116,116,115,116,115,115,115,115,115,115,115,115,115,116,119,0,
0,119,115,116,116,116,115,116,116,115,115,116,115,116,115,115,115,116,119,0,
0,119,115,116,116,116,115,116,116,115,115,116,115,115,116,116,115,116,119,0,
0,119,115,116,116,115,115,115,116,115,115,116,115,115,116,116,115,116,119,0,
0,119,115,116,115,116,115,115,116,115,115,116,116,115,116,116,115,116,119,0,
0,119,115,116,115,115,115,115,116,115,116,115,116,115,116,116,115,116,119,0,
0,119,115,115,115,115,116,115,116,115,116,115,115,115,116,116,115,116,119,0,
0,119,115,116,116,116,116,116,116,116,115,116,116,116,116,116,115,116,119,0,
0,119,119,119,119,119,119,119,119,115,116,116,119,119,119,119,119,119,119,0,
0,0,0,0,0,0,0,0,0,0,0,0,0,0,0,0,0,0,0,0
  </data>
 </layer>

 <layer id="2" name="Tile Layer 2" width="20" height="20">
  <data encoding="csv">
0,0,0,0,0,0,0,0,0,0,0,0,0,0,0,0,0,0,0,0,
0,0,0,0,0,0,0,0,0,0,0,0,0,0,0,0,0,0,0,0,
0,0,0,0,0,0,0,0,0,0,0,0,0,0,0,0,0,0,0,0,
0,0,0,0,0,0,0,0,0,0,0,0,0,0,0,0,0,0,0,0,
0,0,0,0,0,0,0,0,0,0,0,0,0,0,0,0,0,0,0,0,
0,0,0,1598,1599,1600,1601,0,0,0,0,0,0,0,0,0,0,0,0,0,
0,0,0,1611,1612,1613,1614,0,0,0,0,0,0,0,0,0,0,0,0,0,
0,0,0,0,0,0,0,0,0,0,0,0,0,0,0,0,0,0,0,0,
0,0,0,0,0,0,0,0,0,0,0,0,0,0,0,0,0,0,0,0,
0,0,0,0,0,0,0,0,0,0,0,0,0,0,0,0,0,0,0,0,
0,0,0,0,0,0,0,0,0,0,0,0,0,0,0,0,0,0,0,0,
0,0,0,0,0,0,0,0,0,0,0,0,0,0,0,0,0,0,0,0,
0,0,0,0,0,0,0,0,0,0,0,0,0,0,0,0,0,0,0,0,
0,0,0,0,0,0,0,0,0,0,0,0,0,0,0,0,0,0,0,0,
0,0,0,0,0,0,0,0,0,0,0,0,0,0,0,0,0,0,0,0,
0,0,0,0,0,0,0,0,0,0,0,0,0,0,0,0,0,0,0,0,
0,0,0,0,0,0,0,0,0,0,0,0,0,0,0,0,0,0,0,0,
0,0,0,0,0,0,0,0,0,0,0,0,0,0,0,0,0,0,0,0,
0,0,0,0,0,0,0,0,0,0,0,0,0,0,0,0,0,0,0,0,
0,0,0,0,0,0,0,0,0,0,0,0,0,0,0,0,0,0,0,0
  </data>
 </layer>

 <layer id="3" name="Tile Layer 3" width="20" height="20">
  <data encoding="csv">
0,0,0,0,0,0,0,0,0,0,0,0,0,0,0,0,0,0,0,0,
0,0,0,0,0,0,0,0,0,0,0,0,0,0,0,0,0,0,0,0,
0,0,0,0,0,0,0,0,0,0,0,0,0,0,0,0,0,0,0,0,
0,0,0,0,0,0,0,0,0,0,0,0,0,0,0,0,0,0,0,0,
0,0,0,0,0,0,0,1751,1752,1753,1755,1756,1757,0,0,0,0,0,0,0,
0,0,0,0,0,0,0,1764,1765,1766,1768,1769,1770,0,0,0,0,0,0,0,
0,0,1619,1620,0,0,0,1777,1778,1779,1781,1782,1783,0,0,0,0,0,0,0,
0,0,1632,1633,1749,1750,0,0,0,0,0,0,0,0,0,0,0,0,0,0,
0,0,1645,1646,1762,1763,0,0,0,0,0,0,0,0,0,0,0,0,0,0,
0,0,1658,1659,1775,1776,0,0,0,0,0,0,0,0,0,0,0,0,0,0,
0,0,0,0,0,0,0,0,0,0,0,0,0,0,0,0,0,0,0,0,
0,0,0,0,0,0,0,0,0,0,0,0,0,0,0,0,0,0,0,0,
0,0,0,0,0,0,0,0,0,0,0,0,0,0,0,0,0,0,0,0,
0,0,0,0,0,0,0,0,0,0,0,0,0,0,0,0,0,0,0,0,
0,0,0,0,0,0,0,0,0,0,0,0,0,0,0,0,0,0,0,0,
0,0,0,0,0,0,0,0,0,0,0,0,0,0,0,0,0,0,0,0,
0,0,0,0,0,0,0,0,0,0,0,0,0,0,0,0,0,0,0,0,
0,0,0,0,0,0,0,0,0,1499,1500,1501,0,0,0,0,0,0,0,0,
0,0,0,0,0,0,0,0,0,1512,1513,1514,0,0,0,0,0,0,0,0,
0,0,0,0,0,0,0,0,0,0,0,0,0,0,0,0,0,0,0,0
  </data>
 </layer>

 <layer id="4" name="Border" width="20" height="20" visible="0">
  <data encoding="csv">
163,163,163,163,163,163,163,163,163,163,163,163,163,163,163,163,163,163,163,163,
163,163,163,163,163,163,163,163,163,163,163,163,163,163,163,163,163,163,163,163,
163,163,0,0,0,0,0,0,0,0,0,0,0,0,0,0,0,0,163,163,
163,163,0,0,0,0,0,0,0,0,0,0,0,0,0,0,0,0,163,163,
163,163,0,0,0,0,0,0,0,0,0,0,0,0,0,0,0,0,163,163,
163,163,163,163,163,163,163,163,163,163,163,163,163,163,163,163,163,163,163,163,
163,163,163,163,163,163,163,163,163,163,163,163,0,0,0,0,0,0,163,163,
163,163,163,163,163,163,0,0,0,0,0,0,0,0,0,0,0,0,163,163,
163,163,163,163,163,163,0,0,0,0,0,0,0,0,0,0,0,0,163,163,
163,163,163,163,163,163,0,0,0,0,0,0,0,0,0,0,0,0,163,163,
163,163,0,0,0,0,0,0,0,0,0,0,0,0,0,0,0,0,163,163,
163,163,0,0,0,0,0,0,0,0,0,0,0,0,0,0,0,0,163,163,
163,163,0,0,0,0,0,0,0,0,0,0,0,0,0,0,0,0,163,163,
163,163,0,0,0,0,0,0,0,0,0,0,0,0,0,0,0,0,163,163,
163,163,0,0,0,0,0,0,0,0,0,0,0,0,0,0,0,0,163,163,
163,163,0,0,0,0,0,0,0,0,0,0,0,0,0,0,0,0,163,163,
163,163,0,0,0,0,0,0,0,0,0,0,0,0,0,0,0,0,163,163,
163,163,0,0,0,0,0,0,0,0,0,0,0,0,0,0,0,0,163,163,
163,163,163,163,163,163,163,163,163,0,0,0,163,163,163,163,163,163,163,163,
163,163,163,163,163,163,163,163,163,0,0,0,163,163,163,163,163,163,163,163
  </data>
 </layer>

</map>