<?xml version="1.0" encoding="UTF-8"?>
<map version="1.10" tiledversion="1.11.2" orientation="orthogonal" renderorder="right-down" width="11" height="11" tilewidth="16" tileheight="16" infinite="0" nextlayerid="4" nextobjectid="1">
 <tileset firstgid="1" source="Cozy Interior 2.tsx"/>
 <tileset firstgid="163" source="Cozy Interior 4.tsx"/>
 <tileset firstgid="397" source="Cozy Interior 5.tsx"/>
 <tileset firstgid="631" source="Cozy Interior 1.tsx"/>
 <layer id="1" name="Tile Layer 1" width="11" height="11">
  <data encoding="csv">
0,0,0,0,0,0,0,0,0,0,0,
0,28,29,29,30,29,30,29,30,31,0,
0,46,47,47,48,47,48,47,48,49,0,
0,82,83,84,83,84,83,84,84,85,0,
0,100,101,102,101,102,101,102,102,103,0,
0,118,119,120,119,120,119,120,120,121,0,
0,118,119,120,120,120,120,120,119,120,0,
0,118,119,120,119,120,120,120,119,120,0,
0,118,119,119,119,119,119,120,120,121,0,
0,136,137,137,137,137,137,137,138,139,0,
0,0,0,0,0,0,0,0,0,0,0
</data>
 </layer>
 <layer id="2" name="Tile Layer 2" width="11" height="11">
  <data encoding="csv">
0,0,0,0,0,0,0,0,0,0,0,
0,0,0,729,730,0,729,730,0,0,0,
0,260,0,747,748,0,747,748,0,0,0,
0,273,0,765,766,0,765,766,0,0,0,
0,286,0,0,0,0,0,0,0,0,0,
0,553,554,0,0,0,0,0,0,0,0,
0,566,567,0,0,0,0,0,0,0,0,
0,579,580,0,0,0,0,0,0,0,0,
0,592,593,0,433,434,435,0,0,0,0,
0,0,0,0,446,447,448,0,0,0,0,
0,0,0,0,0,0,0,0,0,0,0
</data>
 </layer>
 <layer id="3" name="border" width="11" height="11" visible="0">
  <data encoding="csv">
168,168,168,168,168,168,168,168,168,168,168,
168,0,0,0,0,0,0,0,0,0,168,
168,168,0,0,0,0,0,0,0,0,168,
168,168,168,168,168,168,168,168,168,168,168,
168,168,0,0,0,0,0,0,0,0,168,
168,168,168,0,0,0,0,0,0,0,168,
168,168,168,0,0,0,0,0,0,0,168,
168,168,168,0,0,0,0,0,0,0,168,
168,168,168,0,0,0,0,0,0,0,168,
168,0,0,0,0,0,0,0,0,0,168,
168,168,168,168,168,168,168,168,168,168,168
</data>
 </layer>
</map>
