<?xml version="1.0" encoding="UTF-8"?>
<map version="1.10" tiledversion="1.11.2" orientation="orthogonal" renderorder="right-down" width="22" height="21" tilewidth="16" tileheight="16" infinite="0" nextlayerid="15" nextobjectid="6">
 <tileset firstgid="1" source="tileset.tsx"/>
 <tileset firstgid="1301" source="Cozy Interior 4.tsx"/>
 <tileset firstgid="1535" source="Cozy Interior 2.tsx"/>
 <tileset firstgid="1697" source="Cozy Interior 1.tsx"/>
 <tileset firstgid="1877" source="Cozy Interior 3.tsx"/>
 <tileset firstgid="1901" source="Cozy Interior 5.tsx"/>
 <tileset firstgid="2135" source="Cozy Interior 6.tsx"/>
 <layer id="2" name="Tile Layer 2" width="22" height="21">
  <data encoding="csv">
0,1599,1599,1599,1599,1599,1599,1599,1599,1599,1599,1599,1599,1599,1599,1599,1599,1599,1599,1599,1599,0,
0,1599,1599,1599,1599,1599,1599,1599,1599,1599,1599,1599,1599,1599,1599,1599,1599,1599,1599,1599,1599,0,
0,1599,1599,1599,1599,1599,1599,1599,1599,1599,1599,1599,1599,1599,1599,1599,1599,1599,1599,1599,1599,0,
0,1599,1599,1599,1599,1599,1599,1599,1599,1599,1599,1599,1599,1599,1599,1599,1599,1599,1599,1599,1599,0,
0,1599,1599,1599,1599,1599,1599,1599,1599,1599,1599,1599,1599,1599,1599,1599,1599,1599,1599,1599,1599,0,
0,1599,1599,1581,1581,1599,1599,1599,1599,1599,1599,1599,1599,1599,1599,1599,1581,1581,1581,1581,1581,0,
0,1635,1635,1635,1635,1635,1635,1635,1635,1635,1635,1635,1635,1635,1635,1635,1635,1635,1635,1635,1636,0,
0,1653,1653,1653,1653,1653,1653,1653,1653,1653,1653,1653,1653,1653,1653,1653,1653,1653,1653,1653,1654,0,
0,1653,1654,1654,1654,1654,1654,1591,1653,1654,1654,1654,1654,1654,1654,1654,1654,1654,1654,1653,1654,0,
0,1610,1609,1609,1609,1609,1609,1609,1609,1609,1609,1609,1609,1609,1609,1609,1609,1610,1610,1610,1610,0,
0,1650,1650,1650,1650,1650,1650,1650,1650,1650,1650,1650,1650,1650,1650,1650,1650,1650,1650,1649,1649,0,
0,1650,1650,1650,1649,1650,1650,1650,1650,1650,1650,1650,1650,1650,1650,1650,1650,1649,1650,1650,1650,0,
0,1650,1650,1650,1650,1650,1650,1650,1650,1650,1650,1650,1650,1650,1650,1650,1650,1650,1650,1650,1649,0,
0,1650,1650,1650,1650,1650,1650,1650,1650,1650,1650,1650,1650,1650,1650,1650,1650,1650,1650,1650,1649,0,
0,1650,1650,1650,1650,1650,1650,1650,1650,1650,1650,1650,1650,1650,1650,1650,1650,1650,1650,1650,1649,0,
0,1650,1650,1650,1650,1650,1650,1650,1650,1650,1650,1650,1650,1650,1650,1650,1650,1650,1650,1649,1649,0,
0,1650,1650,1650,1650,1650,1650,1650,1650,1650,1650,1650,1650,1650,1650,1650,1650,1650,1650,1649,1649,0,
0,1650,1650,1650,1650,1650,1650,1650,1650,1650,1650,1650,1650,1650,1650,1650,1650,1650,1650,1649,1649,0,
0,1650,1650,1649,1649,1649,1649,1649,1650,1650,1649,1649,1649,1649,1649,1649,1649,1649,1650,1649,1649,0,
0,1649,1649,1649,1649,1649,1649,1649,1649,1649,1649,1649,1649,1649,1649,1649,1649,1649,1649,1649,1649,0,
0,0,0,0,0,0,0,0,0,0,0,0,0,0,0,0,0,0,0,0,0,0
</data>
 </layer>
 <layer id="5" name="Tile Layer 3" width="22" height="21">
  <data encoding="csv">
0,0,0,0,0,0,0,0,0,0,0,0,0,0,0,0,0,0,0,0,0,0,
0,0,0,0,0,0,0,0,0,0,0,0,0,0,0,0,0,0,0,0,0,0,
0,0,0,0,0,0,0,0,0,0,0,0,0,0,0,0,0,0,0,0,0,0,
0,0,1709,1710,0,0,0,0,0,0,0,0,0,0,0,0,0,0,0,0,0,0,
0,0,1727,1728,0,0,0,0,0,0,0,0,0,0,0,0,0,0,0,0,0,0,
0,0,1745,1746,0,0,0,0,0,0,0,0,0,0,0,0,0,0,0,0,0,0,
0,0,0,0,1999,2000,1355,1356,1357,0,0,0,0,0,0,0,0,0,0,0,0,0,
0,0,0,0,2012,2013,1368,1369,1370,0,0,0,0,0,1500,1501,0,0,0,0,0,0,
0,0,0,0,2025,2026,1368,1369,1370,0,0,0,0,0,0,0,0,0,0,0,0,0,
0,0,0,0,0,0,1368,1369,1370,0,0,0,0,0,1463,1464,1465,1466,1466,1468,1469,0,
0,0,0,0,0,0,1381,1382,1383,0,0,0,0,0,1476,1477,1478,1479,1479,1481,1482,0,
0,0,0,0,0,0,0,0,0,0,0,0,0,0,1489,1490,1491,1492,1492,1494,1495,0,
0,0,0,0,0,0,0,0,0,0,0,0,0,0,0,0,0,0,0,1507,1508,0,
0,0,0,0,0,0,0,0,0,0,0,0,0,0,0,0,0,0,0,0,0,0,
0,0,0,0,2036,2037,2038,2039,0,0,0,0,0,0,0,0,0,0,0,0,0,0,
0,0,2057,2058,2049,2050,2051,2052,0,0,0,0,0,0,0,1309,1309,1309,0,0,0,0,
0,0,2070,2071,1937,1938,1938,1939,0,0,0,0,0,0,0,1322,1322,1322,0,0,0,0,
0,0,2083,2084,1950,1951,1951,1952,0,0,0,0,0,0,0,1340,1341,1342,0,0,0,0,
0,0,2096,2097,0,0,0,0,0,0,0,0,0,0,0,0,0,0,0,0,0,0,
0,0,0,0,0,0,0,0,0,0,0,0,0,0,0,0,0,0,0,0,0,0,
0,0,0,0,0,0,0,0,0,0,0,0,0,0,0,0,0,0,0,0,0,0
</data>
 </layer>
 <layer id="7" name="Tile Layer 4" width="22" height="21" offsetx="0" offsety="1">
  <data encoding="csv">
0,0,0,0,0,0,0,0,0,0,0,0,0,0,0,0,0,0,0,0,0,0,
0,0,0,0,0,0,0,0,0,0,0,0,0,0,0,0,0,0,0,0,0,0,
0,0,0,0,0,0,0,0,0,0,0,0,0,0,0,0,0,0,0,0,0,0,
0,0,1801,1802,0,0,0,0,0,0,0,0,0,0,0,0,0,0,0,0,0,0,
0,0,1819,1820,0,0,0,0,0,0,0,0,0,0,0,0,0,0,0,0,0,0,
0,0,1837,1838,0,0,0,0,0,0,0,0,0,0,0,0,0,0,0,0,0,0,
0,0,1715,1716,0,0,0,0,0,0,0,0,0,0,0,0,0,0,0,0,0,0,
0,0,1733,1734,0,0,0,0,0,1459,1460,0,0,0,0,0,0,0,0,0,0,0,
0,0,1751,1752,0,0,0,0,0,1472,1473,0,0,0,0,0,0,0,0,0,0,0,
0,1431,1769,1770,2120,2121,0,0,0,1485,1486,0,0,0,0,0,0,0,0,0,0,0,
0,1444,1769,1770,2133,2134,0,0,0,1498,1499,0,0,0,0,0,0,0,0,0,0,0,
0,0,0,0,0,0,0,0,0,0,0,0,0,0,0,0,0,0,0,0,0,0,
0,0,0,0,0,0,0,0,0,0,0,0,0,0,0,0,0,0,0,0,0,0,
0,0,0,1998,0,0,0,0,0,0,0,0,0,0,0,0,0,0,0,0,0,0,
0,0,0,2011,0,0,0,0,0,0,0,0,0,0,0,0,0,0,0,0,0,0,
0,0,0,2024,0,1932,1933,0,0,0,0,1358,0,0,0,0,0,0,0,0,0,0,
0,0,0,0,0,1945,1946,0,0,0,0,1371,0,0,1310,1327,1328,1329,0,0,0,0,
0,0,0,0,2032,2033,2034,2035,0,0,0,1371,0,0,1323,1311,1311,1311,0,0,0,0,
0,0,0,0,2045,2046,2047,2048,0,0,0,1371,0,0,0,1324,1324,1324,0,0,0,0,
0,0,0,0,0,0,0,0,0,0,0,1371,0,0,0,0,0,0,0,0,0,0,
0,0,0,0,0,0,0,0,0,0,0,0,0,0,0,0,0,0,0,0,0,0
</data>
 </layer>
 <layer id="8" name="Tile Layer 5" width="22" height="21">
  <data encoding="csv">
0,0,0,0,0,0,0,0,0,0,0,0,0,0,0,0,0,0,0,0,0,0,
0,0,0,0,0,0,0,0,0,0,0,0,0,0,0,0,0,0,0,0,0,0,
0,0,0,0,0,0,0,0,0,0,0,0,0,0,0,0,0,0,0,0,0,0,
0,0,0,0,0,0,0,0,0,0,0,0,0,0,0,0,0,0,0,0,0,0,
0,0,0,0,0,0,0,0,0,0,0,0,0,0,0,0,0,0,0,0,0,0,
0,0,0,0,0,0,0,0,0,0,0,0,0,0,0,0,0,0,0,0,0,0,
0,0,0,0,0,0,0,0,0,0,0,0,0,0,0,0,0,0,0,0,0,0,
0,0,0,0,0,0,0,0,0,0,0,0,0,0,0,0,0,0,0,0,0,0,
0,0,0,0,0,0,0,0,0,0,0,0,0,0,0,0,0,0,0,0,0,0,
0,0,0,0,0,0,0,0,0,0,0,0,0,0,0,0,0,0,0,0,0,0,
0,0,0,0,0,0,0,0,0,0,0,0,0,0,0,0,0,0,0,0,0,0,
0,0,0,0,0,0,0,0,0,0,0,0,0,0,0,0,0,0,0,0,0,0,
0,0,0,0,0,0,0,0,0,0,0,0,0,0,0,0,0,0,0,0,0,0,
0,0,0,0,0,0,0,0,0,0,0,0,0,0,0,0,0,0,0,0,0,0,
0,0,0,0,0,0,0,0,0,0,0,0,0,0,0,0,0,0,0,0,0,0,
0,0,0,0,0,0,0,0,0,0,0,0,0,0,0,0,0,0,0,0,0,0,
0,0,0,0,0,0,0,0,0,0,0,0,0,0,0,0,0,0,0,0,0,0,
0,0,0,0,0,0,0,0,0,0,0,0,0,0,0,0,0,0,0,0,0,0,
0,0,0,0,0,0,0,0,0,0,0,0,0,0,0,0,0,0,0,0,0,0,
0,0,0,0,0,0,0,0,0,0,0,0,0,0,0,0,0,0,0,0,0,0,
0,0,0,0,0,0,0,0,0,0,0,0,0,0,0,0,0,0,0,0,0,0
</data>
 </layer>
 <layer id="14" name="Border" width="22" height="21" visible="0">
  <data encoding="csv">
1326,1326,1326,1326,1326,1326,1326,1326,1326,1326,1326,1326,1326,1326,1326,1326,1326,1326,1326,1326,1326,1326,
1326,0,0,0,0,0,0,0,0,0,0,0,0,0,0,0,0,0,0,0,0,1326,
1326,1326,1326,1326,1326,0,0,0,0,0,0,0,0,0,0,0,0,0,0,0,0,1326,
1326,1326,0,0,1326,0,0,0,0,0,0,0,0,0,0,0,0,0,0,0,0,1326,
1326,1326,0,0,1326,0,0,0,0,0,0,0,0,0,0,0,0,0,0,0,0,1326,
1326,1326,0,0,1326,1326,1326,1326,1326,1326,1326,1326,1326,1326,1326,1326,1326,1326,1326,1326,1326,1326,
1326,1326,0,0,1326,0,0,0,0,0,0,0,0,0,0,0,0,0,0,0,0,1326,
1326,1326,0,0,1326,0,0,0,0,0,0,0,0,0,0,0,0,0,0,0,0,1326,
1326,1326,0,0,1326,0,0,0,0,0,0,0,0,0,0,0,0,0,0,0,0,1326,
1326,1326,0,0,1326,0,0,0,0,0,0,1326,0,0,0,0,0,0,0,0,0,1326,
1326,1326,0,0,1326,1326,1326,1326,1326,1326,1326,0,1326,1326,0,0,0,0,0,0,0,1326,
1326,0,0,0,0,0,0,0,0,0,0,0,1326,1326,1326,1326,1326,1326,1326,1326,1326,1326,
1326,0,0,0,0,0,0,0,0,0,0,0,0,0,0,0,0,0,0,1326,1326,1326,
1326,0,0,0,0,0,0,0,0,0,0,0,0,0,0,0,0,0,0,0,0,1326,
1326,0,0,0,1326,1326,1326,1326,0,0,0,0,0,0,0,0,0,0,0,0,0,1326,
1326,0,1326,1326,1326,1326,1326,1326,0,0,0,1326,0,0,0,1326,1326,1326,0,0,0,1326,
1326,0,1326,0,0,1326,1326,0,0,0,0,1326,0,0,0,1326,1326,1326,0,0,0,1326,
1326,0,1326,0,0,0,0,0,0,0,0,1326,0,0,1326,1326,1326,1326,0,0,0,1326,
1326,0,1326,0,1326,1326,1326,1326,0,0,0,1326,0,0,0,1326,1326,1326,0,0,0,1326,
1326,0,0,0,0,0,0,0,0,0,0,1326,0,0,0,0,0,0,0,0,0,1326,
1326,1326,1326,1326,1326,1326,1326,1326,1326,1326,1326,1326,1326,1326,1326,1326,1326,1326,1326,1326,1326,1326
</data>
 </layer>
</map>