<?xml version="1.0" encoding="UTF-8"?>
<map version="1.10" tiledversion="1.11.2" orientation="orthogonal" renderorder="right-down" width="27" height="52" tilewidth="16" tileheight="16" infinite="0" nextlayerid="13" nextobjectid="1">
 <tileset firstgid="1" source="tileset.tsx"/>
 <tileset firstgid="1301" source="Cozy Interior 4.tsx"/>
 <tileset firstgid="1535" source="Cozy Interior 2.tsx"/>
 <tileset firstgid="1697" source="Cozy Interior 2.tsx"/>
 <tileset firstgid="1859" source="Cozy Interior 4.tsx"/>
 <layer id="9" name="Tile Layer 2" width="27" height="52">
  <data encoding="csv">
0,0,0,0,0,0,0,0,0,0,0,0,0,0,0,0,0,0,0,0,0,0,0,0,0,0,0,
0,1792,1793,1793,1793,1793,1793,1793,1793,1793,1793,1793,1793,1793,1793,1793,1793,1793,1793,1793,1793,1793,1793,1793,1793,1795,0,
0,1810,1649,1649,1649,1649,1649,1649,1650,1649,1649,1649,1649,1649,1649,1649,1649,1649,1649,1649,1649,1649,1649,1649,1650,1813,0,
0,1810,1649,1650,1649,1650,1650,1650,1650,1649,1650,1650,1650,1650,1649,1650,1650,1650,1650,1650,1649,1650,1649,1649,1650,1813,0,
0,1810,1649,1650,1649,1650,1650,1649,1650,1649,1649,1650,1650,1649,1650,1650,1650,1650,1650,1650,1650,1650,1650,1649,1650,1813,0,
0,1810,1649,1650,1649,1650,1649,1650,1649,1649,1650,1650,1650,1649,1649,1650,1650,1650,1650,1650,1649,1650,1650,1649,1650,1813,0,
0,1810,1649,1650,1649,1650,1649,1650,1649,1649,1650,1649,1649,1650,1649,1649,1649,1650,1650,1650,1650,1650,1650,1649,1650,1813,0,
0,1810,1649,1650,1649,1650,1649,1649,1649,1650,1649,1650,1650,1650,1650,1649,1649,1650,1649,1649,1649,1650,1650,1650,1650,1813,0,
0,1810,1649,1650,1649,1650,1649,1650,1650,1649,1649,1649,1649,1649,1649,1650,1649,1650,1650,1649,1649,1650,1650,1650,1650,1813,0,
0,1810,1650,1649,1650,1650,1649,1650,1650,1649,1650,1649,1649,1649,1649,1649,1650,1649,1650,1649,1649,1650,1649,1650,1650,1813,0,
0,1810,1649,1649,1650,1649,1649,1650,1649,1650,1650,1649,1649,1649,1649,1649,1650,1649,1650,1649,1649,1650,1649,1650,1650,1813,0,
0,1810,1649,1649,1649,1649,1649,1650,1649,1650,1650,1649,1649,1649,1649,1649,1649,1649,1650,1649,1650,1650,1649,1649,1650,1813,0,
0,1810,1649,1650,1649,1649,1649,1649,1650,1650,1649,1649,1650,1649,1649,1649,1649,1649,1650,1650,1650,1650,1649,1649,1650,1813,0,
0,1810,1649,1650,1649,1649,1649,1649,1650,1649,1649,1649,1649,1649,1649,1649,1649,1650,1650,1650,1650,1650,1649,1650,1650,1813,0,
0,1810,1649,1650,1649,1649,1650,1650,1649,1649,1649,1650,1650,1649,1649,1650,1649,1650,1649,1650,1650,1650,1649,1650,1650,1813,0,
0,1810,1649,1650,1649,1650,1650,1649,1650,1650,1649,1650,1649,1649,1649,1649,1649,1649,1650,1649,1649,1650,1649,1650,1650,1813,0,
0,1810,1649,1649,1650,1649,1650,1649,1650,1650,1649,1650,1649,1649,1649,1649,1649,1649,1649,1650,1649,1649,1650,1650,1650,1813,0,
0,1810,1649,1649,1650,1649,1650,1649,1650,1650,1649,1650,1649,1649,1649,1650,1649,1650,1649,1649,1649,1649,1650,1649,1650,1813,0,
0,1810,1649,1649,1650,1649,1649,1649,1650,1649,1649,1650,1649,1649,1649,1650,1649,1649,1649,1649,1649,1649,1650,1650,1650,1813,0,
0,1810,1649,1649,1649,1649,1649,1649,1650,1649,1649,1649,1649,1649,1649,1649,1649,1649,1650,1649,1649,1650,1650,1650,1650,1813,0,
0,1810,1649,1650,1649,1649,1649,1649,1650,1649,1649,1649,1649,1649,1649,1649,1649,1649,1650,1649,1649,1650,1650,1649,1650,1813,0,
0,1810,1649,1650,1649,1650,1650,1649,1650,1649,1650,1649,1649,1649,1649,1649,1649,1649,1649,1649,1649,1650,1650,1649,1650,1813,0,
0,1810,1649,1649,1650,1650,1650,1650,1649,1649,1650,1649,1650,1649,1650,1649,1649,1649,1649,1649,1649,1650,1650,1649,1650,1813,0,
0,1810,1649,1649,1650,1650,1650,1650,1649,1649,1649,1649,1649,1649,1650,1650,1649,1649,1650,1650,1650,1650,1650,1649,1650,1813,0,
0,1810,1649,1649,1650,1650,1650,1649,1649,1649,1649,1649,1649,1649,1650,1649,1649,1649,1650,1650,1650,1649,1650,1649,1650,1813,0,
0,1810,1649,1649,1650,1649,1649,1649,1650,1650,1650,1649,1649,1649,1650,1649,1649,1649,1650,1649,1650,1649,1650,1650,1650,1813,0,
0,1810,1649,1649,1650,1649,1649,1649,1650,1649,1650,1649,1649,1650,1650,1649,1649,1650,1650,1650,1650,1650,1649,1649,1650,1813,0,
0,1810,1649,1649,1649,1650,1649,1650,1650,1649,1650,1649,1649,1650,1650,1649,1649,1650,1650,1650,1649,1650,1649,1649,1650,1813,0,
0,1810,1649,1649,1649,1649,1649,1650,1649,1649,1650,1649,1649,1650,1650,1649,1650,1650,1650,1650,1649,1650,1649,1649,1650,1813,0,
0,1810,1649,1650,1649,1649,1649,1650,1649,1650,1650,1650,1650,1649,1650,1649,1650,1649,1650,1649,1650,1650,1649,1649,1650,1813,0,
0,1810,1649,1650,1649,1650,1649,1650,1649,1650,1649,1650,1650,1649,1650,1649,1650,1649,1650,1649,1650,1650,1649,1650,1650,1813,0,
0,1810,1649,1650,1649,1650,1649,1650,1649,1650,1649,1649,1650,1650,1650,1650,1649,1649,1650,1649,1650,1650,1650,1649,1650,1813,0,
0,1810,1649,1650,1649,1649,1649,1649,1650,1650,1649,1649,1650,1649,1650,1650,1650,1649,1650,1649,1650,1649,1650,1649,1650,1813,0,
0,1810,1649,1650,1649,1649,1649,1650,1650,1650,1650,1649,1650,1649,1650,1649,1650,1649,1650,1649,1650,1649,1650,1650,1650,1813,0,
0,1810,1649,1650,1649,1649,1649,1650,1650,1650,1650,1649,1650,1649,1649,1649,1650,1650,1650,1649,1650,1650,1649,1649,1650,1813,0,
0,1810,1649,1650,1649,1650,1649,1649,1650,1649,1650,1649,1650,1649,1649,1650,1649,1650,1650,1649,1650,1650,1649,1649,1650,1813,0,
0,1810,1649,1649,1649,1649,1649,1649,1650,1649,1650,1650,1649,1649,1650,1650,1649,1650,1650,1649,1650,1650,1649,1650,1650,1813,0,
0,1810,1649,1649,1649,1649,1649,1650,1649,1649,1650,1649,1649,1649,1650,1650,1649,1650,1650,1649,1650,1650,1649,1650,1650,1813,0,
0,1810,1649,1649,1649,1649,1649,1649,1649,1649,1650,1649,1649,1649,1650,1650,1649,1650,1650,1649,1650,1650,1649,1649,1650,1813,0,
0,1810,1649,1649,1649,1649,1649,1650,1649,1650,1649,1649,1649,1649,1650,1650,1649,1650,1650,1649,1650,1650,1649,1650,1650,1813,0,
0,1810,1649,1649,1650,1649,1649,1650,1649,1650,1649,1649,1649,1650,1650,1650,1649,1650,1650,1649,1650,1650,1649,1649,1650,1813,0,
0,1810,1649,1649,1649,1649,1649,1649,1650,1649,1649,1649,1649,1650,1650,1650,1649,1650,1650,1649,1650,1650,1649,1649,1650,1813,0,
0,1810,1649,1650,1649,1649,1649,1649,1650,1649,1649,1649,1649,1650,1650,1649,1649,1650,1650,1649,1650,1650,1649,1650,1650,1813,0,
0,1810,1649,1650,1649,1649,1649,1649,1649,1649,1649,1649,1649,1650,1650,1650,1650,1650,1650,1649,1650,1650,1649,1650,1650,1813,0,
0,1810,1649,1650,1649,1649,1649,1650,1650,1649,1650,1649,1650,1649,1650,1650,1649,1649,1650,1649,1650,1650,1649,1649,1650,1813,0,
0,1810,1649,1650,1649,1649,1649,1649,1649,1650,1650,1649,1649,1650,1650,1650,1650,1650,1650,1649,1650,1650,1649,1650,1650,1813,0,
0,1810,1649,1650,1649,1649,1649,1649,1649,1649,1649,1650,1650,1650,1649,1650,1649,1650,1650,1649,1650,1650,1649,1649,1650,1813,0,
0,1810,1649,1650,1649,1649,1649,1649,1650,1650,1650,1650,1650,1650,1649,1650,1650,1650,1650,1650,1650,1650,1650,1650,1650,1813,0,
0,1810,1649,1650,1649,1649,1649,1649,1649,1649,1649,1649,1649,1650,1650,1649,1649,1649,1649,1650,1650,1649,1650,1649,1650,1813,0,
0,1810,1649,1650,1649,1650,1649,1649,1649,1649,1649,1649,1649,1649,1649,1649,1649,1649,1649,1649,1649,1649,1649,1649,1650,1813,0,
0,1828,1829,1829,1829,1829,1829,1829,1829,1829,1829,1829,1829,1829,1829,1829,1829,1829,1829,1829,1829,1829,1829,1829,1829,1831,0,
0,0,0,0,0,0,0,0,0,0,0,0,0,0,0,0,0,0,0,0,0,0,0,0,0,0,0
</data>
 </layer>
 <layer id="8" name="Tile Layer 1" width="27" height="52">
  <data encoding="csv">
0,0,0,0,0,0,0,0,0,0,0,0,0,0,0,0,0,0,0,0,0,0,0,0,0,0,0,
0,0,0,0,0,0,0,0,0,0,0,0,0,0,0,0,0,0,0,0,0,0,0,0,0,0,0,
0,0,0,0,0,0,0,0,0,0,0,0,0,0,0,0,0,0,0,0,0,0,0,0,0,0,0,
0,0,0,0,0,0,0,0,0,0,0,0,0,0,0,0,0,0,0,0,0,0,0,0,0,0,0,
0,0,0,0,0,0,0,0,0,0,0,0,0,0,0,0,0,0,0,0,0,0,0,0,0,0,0,
0,0,0,0,0,0,0,0,0,0,0,0,0,0,0,0,0,0,0,0,0,0,0,0,0,0,0,
0,0,0,0,0,0,0,0,0,0,0,0,0,0,0,0,0,0,0,0,0,0,0,0,0,0,0,
0,0,0,0,0,0,0,0,0,0,0,0,0,0,0,0,0,0,0,0,0,0,0,0,0,0,0,
0,0,0,0,0,0,0,0,0,0,0,0,0,0,0,0,0,0,0,0,0,0,0,0,0,0,0,
0,0,0,0,0,0,0,0,0,0,0,0,0,0,0,0,0,0,0,0,0,0,0,0,0,0,0,
0,0,0,0,0,0,0,0,0,0,0,0,0,0,0,0,0,0,0,0,0,0,0,0,0,0,0,
0,0,0,0,0,0,0,0,0,0,0,0,0,0,0,0,0,0,0,0,0,0,0,0,0,0,0,
0,0,0,0,0,0,0,0,0,0,0,0,0,0,0,0,0,0,0,0,0,0,0,0,0,0,0,
0,0,0,0,0,0,0,0,0,0,0,0,0,0,0,0,0,0,0,0,0,0,0,0,0,0,0,
0,0,0,0,0,0,0,0,0,0,0,0,0,0,0,0,0,0,0,0,0,0,0,0,0,0,0,
0,0,0,0,0,0,0,0,0,0,0,0,0,0,0,0,0,0,0,0,0,0,0,0,0,0,0,
0,0,0,0,0,0,0,0,0,0,0,0,0,0,0,0,0,0,0,0,0,0,0,0,0,0,0,
0,0,0,0,0,0,0,0,0,0,0,0,0,0,0,0,0,0,0,0,0,0,0,0,0,0,0,
0,0,0,0,0,0,0,0,0,0,0,0,0,0,0,0,0,0,0,0,0,0,0,0,0,0,0,
0,0,0,0,0,0,0,0,0,0,0,0,0,0,0,0,0,0,0,0,0,0,0,0,0,0,0,
0,0,0,0,0,0,0,0,0,0,0,0,0,0,0,0,0,0,0,0,0,0,0,0,0,0,0,
0,0,0,0,0,0,0,0,0,0,0,0,0,0,0,0,0,0,0,0,0,0,0,0,0,0,0,
0,0,0,0,0,0,0,0,0,0,0,0,0,0,0,0,0,0,0,0,0,0,0,0,0,0,0,
0,0,0,0,0,0,0,0,0,0,0,0,0,0,0,0,0,0,0,0,0,0,0,0,0,0,0,
0,0,0,0,0,0,0,0,0,0,0,0,0,0,0,0,0,0,0,0,0,0,0,0,0,0,0,
0,0,0,0,0,0,0,0,0,0,0,0,0,0,0,0,0,0,0,0,0,0,0,0,0,0,0,
0,0,0,0,0,0,0,0,0,0,0,0,0,0,0,0,0,0,0,0,0,0,0,0,0,0,0,
0,0,0,0,0,0,0,0,0,0,0,0,0,0,0,0,0,0,0,0,0,0,0,0,0,0,0,
0,0,0,0,0,0,0,0,0,0,0,0,0,0,0,0,0,0,0,0,0,0,0,0,0,0,0,
0,0,0,0,0,0,0,0,0,0,0,0,0,0,0,0,0,0,0,0,0,0,0,0,0,0,0,
0,0,0,0,0,0,0,0,0,0,0,0,0,0,0,0,0,0,0,0,0,0,0,0,0,0,0,
0,0,0,0,0,0,0,0,0,0,0,0,0,0,0,0,0,0,0,0,0,0,0,0,0,0,0,
0,0,0,0,0,0,0,0,0,0,0,0,0,0,0,0,0,0,0,0,0,0,0,0,0,0,0,
0,0,0,0,0,0,0,0,0,0,0,0,0,0,0,0,0,0,0,0,0,0,0,0,0,0,0,
0,0,0,0,0,0,0,0,0,0,0,0,0,0,0,0,0,0,0,0,0,0,0,0,0,0,0,
0,0,0,0,0,0,0,0,0,0,0,0,0,0,0,0,0,0,0,0,0,0,0,0,0,0,0,
0,0,0,0,0,0,0,0,0,0,0,0,0,0,0,0,0,0,0,0,0,0,0,0,0,0,0,
0,0,0,0,0,0,0,0,0,0,0,0,0,0,0,0,0,0,0,0,0,0,0,0,0,0,0,
0,0,0,0,0,0,0,0,0,0,0,0,0,0,0,0,0,0,0,0,0,0,0,0,0,0,0,
0,0,0,0,0,0,0,0,0,0,0,0,0,0,0,0,0,0,0,0,0,0,0,0,0,0,0,
0,0,0,0,0,0,0,0,0,0,0,0,0,0,0,0,0,0,0,0,0,0,0,0,0,0,0,
0,0,0,0,0,0,0,0,0,0,0,0,0,0,0,0,0,0,0,0,0,0,0,0,0,0,0,
0,0,0,0,0,0,0,0,0,0,0,0,0,0,0,0,0,0,0,0,0,0,0,0,0,0,0,
0,0,0,0,0,0,0,0,0,0,0,0,0,0,0,0,0,0,0,0,0,0,0,0,0,0,0,
0,0,0,0,0,0,0,0,0,0,0,0,0,0,0,0,0,0,0,0,0,0,0,0,0,0,0,
0,0,0,0,0,0,0,0,1920,0,0,0,0,0,0,0,0,0,1920,0,0,0,0,0,0,0,0,
0,0,0,0,0,0,0,0,1933,0,0,0,0,0,0,0,0,0,1933,0,0,0,0,0,0,0,0,
0,0,0,0,0,0,0,0,1946,0,0,0,0,0,0,0,0,0,1946,0,0,0,0,0,0,0,0,
0,0,0,0,0,0,0,0,1920,0,0,0,0,0,0,0,0,0,1920,0,0,0,0,0,0,0,0,
0,0,0,0,0,0,0,0,1933,0,0,1895,1896,1896,1896,1897,0,0,1933,0,0,0,0,0,0,0,0,
0,0,0,0,0,0,0,0,1946,0,0,1908,1909,1909,1909,1910,0,0,1946,0,0,0,0,0,0,0,0,
0,0,0,0,0,0,0,0,0,0,0,0,0,0,0,0,0,0,0,0,0,0,0,0,0,0,0
</data>
 </layer>
 <layer id="11" name="Tile Layer 4" width="27" height="52">
  <data encoding="csv">
0,0,0,0,0,0,0,0,0,0,0,0,0,0,0,0,0,0,0,0,0,0,0,0,0,0,0,
0,0,0,0,0,0,0,0,0,0,0,0,0,0,0,0,0,0,0,0,0,0,0,0,0,0,0,
0,0,0,0,0,0,0,0,0,0,0,0,0,0,0,0,0,0,0,0,0,0,0,0,0,0,0,
0,0,0,0,0,0,0,0,0,0,0,0,0,0,0,0,0,0,0,0,0,0,0,0,0,0,0,
0,0,0,0,0,0,0,0,0,0,0,0,0,0,0,0,0,0,0,0,0,0,0,0,0,0,0,
0,0,0,0,0,0,0,0,0,0,0,0,0,0,0,0,0,0,0,0,0,0,0,0,0,0,0,
0,0,0,0,0,0,0,0,0,0,0,0,0,0,0,0,0,0,0,0,0,0,0,0,0,0,0,
0,0,0,0,0,0,0,0,0,0,0,0,0,0,0,0,0,0,0,0,0,0,0,0,0,0,0,
0,0,0,0,0,0,0,0,0,0,0,0,0,0,0,0,0,0,0,0,0,0,0,0,0,0,0,
0,0,0,0,0,0,0,0,0,0,0,0,0,0,0,0,0,0,0,0,0,0,0,0,0,0,0,
0,0,0,0,0,0,0,0,0,0,0,0,0,0,0,0,0,0,0,0,0,0,0,0,0,0,0,
0,1920,0,0,0,0,0,0,0,0,0,0,0,0,0,0,0,0,0,0,0,0,0,0,0,1920,0,
0,1933,0,0,0,0,0,0,0,0,0,0,0,0,0,0,0,0,0,0,0,0,0,0,0,1933,0,
0,1946,0,0,0,0,0,0,0,0,0,0,0,0,0,0,0,0,0,0,0,0,0,0,0,1946,0,
0,0,0,0,0,0,0,0,0,0,0,0,0,0,0,0,0,0,0,0,0,0,0,0,0,0,0,
0,1920,0,0,0,0,0,0,0,0,0,0,0,0,0,0,0,0,0,0,0,0,0,0,0,1920,0,
0,1933,0,0,0,0,0,0,0,0,0,0,0,0,0,0,0,0,0,0,0,0,0,0,0,1933,0,
0,1946,0,0,0,0,0,0,0,0,0,0,0,0,0,0,0,0,0,0,0,0,0,0,0,1946,0,
0,0,0,0,0,0,0,0,0,0,0,0,0,0,0,0,0,0,0,0,0,0,0,0,0,0,0,
0,1920,0,0,0,0,0,0,0,0,0,0,0,0,0,0,0,0,0,0,0,0,0,0,0,1920,0,
0,1933,0,0,0,0,0,0,0,0,0,0,0,0,0,0,0,0,0,0,0,0,0,0,0,1933,0,
0,1946,0,0,0,0,0,0,0,0,0,0,0,0,0,0,0,0,0,0,0,0,0,0,0,1946,0,
0,0,0,0,0,0,0,0,0,0,0,0,0,0,0,0,0,0,0,0,0,0,0,0,0,0,0,
0,1920,0,0,0,0,0,0,0,0,0,0,0,0,0,0,0,0,0,0,0,0,0,0,0,1920,0,
0,1933,0,0,0,0,0,0,0,0,0,0,0,0,0,0,0,0,0,0,0,0,0,0,0,1933,0,
0,1946,0,0,0,0,0,0,0,0,0,0,0,0,0,0,0,0,0,0,0,0,0,0,0,1946,0,
0,0,0,0,0,0,0,0,0,0,0,0,0,0,0,0,0,0,0,0,0,0,0,0,0,0,0,
0,1920,0,0,0,0,0,0,0,0,0,0,0,0,0,0,0,0,0,0,0,0,0,0,0,1920,0,
0,1933,0,0,0,0,0,0,0,0,0,0,0,0,0,0,0,0,0,0,0,0,0,0,0,1933,0,
0,1946,0,0,0,0,0,0,0,0,0,0,0,0,0,0,0,0,0,0,0,0,0,0,0,1946,0,
0,0,0,0,0,0,0,0,0,0,0,0,0,0,0,0,0,0,0,0,0,0,0,0,0,0,0,
0,1920,0,0,0,0,0,0,0,0,0,0,0,0,0,0,0,0,0,0,0,0,0,0,0,1920,0,
0,1933,0,0,0,0,0,0,0,0,0,0,0,0,0,0,0,0,0,0,0,0,0,0,0,1933,0,
0,1946,0,0,0,0,0,0,0,0,0,0,0,0,0,0,0,0,0,0,0,0,0,0,0,1946,0,
0,0,0,0,0,0,0,0,0,0,0,0,0,0,0,0,0,0,0,0,0,0,0,0,0,0,0,
0,1920,0,0,0,0,0,0,0,0,0,0,0,0,0,0,0,0,0,0,0,0,0,0,0,1920,0,
0,1933,0,0,0,0,0,0,0,0,0,0,0,0,0,0,0,0,0,0,0,0,0,0,0,1933,0,
0,1946,0,0,0,0,0,0,0,0,0,0,0,0,0,0,0,0,0,0,0,0,0,0,0,1946,0,
0,0,0,0,0,0,0,0,0,0,0,0,0,0,0,0,0,0,0,0,0,0,0,0,0,0,0,
0,1920,0,0,0,0,0,0,0,0,0,0,0,0,0,0,0,0,0,0,0,0,0,0,0,1920,0,
0,1933,0,0,0,0,0,0,0,0,0,0,0,0,0,0,0,0,0,0,0,0,0,0,0,1933,0,
0,1946,0,0,0,0,0,0,0,0,0,0,0,0,0,0,0,0,0,0,0,0,0,0,0,1946,0,
0,0,0,0,0,0,0,0,0,0,0,0,0,0,0,0,0,0,0,0,0,0,0,0,0,0,0,
0,1920,0,0,0,0,0,0,0,0,0,0,0,0,0,0,0,0,0,0,0,0,0,0,0,1920,0,
0,1933,0,0,0,0,0,0,0,0,0,0,0,0,0,0,0,0,0,0,0,0,0,0,0,1933,0,
0,1946,0,0,0,0,0,0,0,0,0,0,0,0,0,0,0,0,0,0,0,0,0,0,0,1946,0,
0,0,0,0,0,0,0,0,0,0,0,0,0,0,0,0,0,0,0,0,0,0,0,0,0,0,0,
0,1920,0,0,0,0,0,0,0,0,0,0,0,0,0,0,0,0,0,0,0,0,0,0,0,1920,0,
0,1933,0,0,0,0,0,0,0,0,0,0,0,0,0,0,0,0,0,0,0,0,0,0,0,1933,0,
0,1946,0,0,0,0,0,0,0,0,0,0,0,0,0,0,0,0,0,0,0,0,0,0,0,1946,0,
0,0,0,0,0,0,0,0,0,0,0,0,0,0,0,0,0,0,0,0,0,0,0,0,0,0,0,
0,0,0,0,0,0,0,0,0,0,0,0,0,0,0,0,0,0,0,0,0,0,0,0,0,0,0
</data>
 </layer>
 <layer id="10" name="Tile Layer 3" width="27" height="52">
  <data encoding="csv">
0,0,0,0,0,0,0,0,0,0,0,0,0,0,0,0,0,0,0,0,0,0,0,0,0,0,0,
0,0,0,0,0,0,0,0,0,0,0,0,0,0,0,0,0,0,0,0,0,0,0,0,0,0,0,
0,0,0,0,0,0,0,0,0,0,0,0,0,0,0,0,0,0,0,0,0,0,0,0,0,0,0,
0,0,0,0,0,0,0,0,0,0,0,0,0,0,0,0,0,0,0,0,0,0,0,0,0,0,0,
0,0,0,0,0,0,0,0,0,0,0,0,0,0,0,0,0,0,0,0,0,0,0,0,0,0,0,
0,0,0,0,0,0,0,0,0,0,0,0,0,0,0,0,0,0,0,0,0,0,0,0,0,0,0,
0,0,0,0,0,0,0,0,0,0,0,0,0,0,0,0,0,0,0,0,0,0,0,0,0,0,0,
0,1917,1918,1919,1917,1918,1919,1917,1918,1919,1917,1918,1919,1917,1918,1919,1917,1918,1919,1917,1918,1919,1917,1918,1919,0,0,
0,1930,1931,1932,1930,1931,1932,1930,1931,1932,1930,1931,1932,1930,1931,1932,1930,1931,1932,1930,1931,1932,1930,1931,1932,0,0,
0,1943,1944,1945,1943,1944,1945,1943,1944,1945,1943,1944,1945,1943,1944,1945,1943,1944,1945,1943,1944,1945,1943,1944,1945,0,0,
0,0,0,0,0,0,0,0,0,0,0,0,0,0,0,0,0,0,0,0,0,0,0,0,0,0,0,
0,0,0,0,0,0,0,0,0,0,0,0,0,0,0,0,0,0,0,0,0,0,0,0,0,0,0,
0,1956,0,0,0,0,0,0,0,0,0,0,0,0,0,0,0,0,0,0,0,0,0,0,0,1956,0,
0,1969,0,0,0,0,0,0,0,0,0,0,0,0,0,0,0,0,0,0,0,0,0,0,0,1969,0,
0,1982,0,0,0,0,0,0,0,0,0,0,0,0,0,0,0,0,0,0,0,0,0,0,0,1982,0,
0,0,0,0,0,0,0,0,0,0,0,0,0,0,0,0,0,0,0,0,0,0,0,0,0,0,0,
0,1956,0,0,0,0,0,0,0,0,0,0,0,0,0,0,0,0,0,0,0,0,0,0,0,1956,0,
0,1969,0,0,0,0,0,0,0,0,0,0,0,0,0,0,0,0,0,0,0,0,0,0,0,1969,0,
0,1982,0,0,0,0,0,0,0,0,0,0,0,0,0,0,0,0,0,0,0,0,0,0,0,1982,0,
0,0,0,0,0,0,0,0,0,0,0,0,0,0,0,0,0,0,0,0,0,0,0,0,0,0,0,
0,1956,0,0,0,0,0,0,0,0,0,0,0,0,0,0,0,0,0,0,0,0,0,0,0,1956,0,
0,1969,0,0,0,0,0,0,0,0,0,0,0,0,0,0,0,0,0,0,0,0,0,0,0,1969,0,
0,1982,0,0,0,0,0,0,0,0,0,0,0,0,0,0,0,0,0,0,0,0,0,0,0,1982,0,
0,0,0,0,0,0,0,0,0,0,0,0,0,0,0,0,0,0,0,0,0,0,0,0,0,0,0,
0,1956,0,0,0,0,0,0,0,0,0,0,0,0,0,0,0,0,0,0,0,0,0,0,0,1956,0,
0,1969,0,0,0,0,0,0,0,0,0,0,0,0,0,0,0,0,0,0,0,0,0,0,0,1969,0,
0,1982,0,0,0,0,0,0,0,0,0,0,0,0,0,0,0,0,0,0,0,0,0,0,0,1982,0,
0,0,0,0,0,0,0,0,0,0,0,0,0,0,0,0,0,0,0,0,0,0,0,0,0,0,0,
0,1956,0,0,0,0,0,0,0,0,0,0,0,0,0,0,0,0,0,0,0,0,0,0,0,1956,0,
0,1969,0,0,0,0,0,0,0,0,0,0,0,0,0,0,0,0,0,0,0,0,0,0,0,1969,0,
0,1982,0,0,0,0,0,0,0,0,0,0,0,0,0,0,0,0,0,0,0,0,0,0,0,1982,0,
0,0,0,0,0,0,0,0,0,0,0,0,0,0,0,0,0,0,0,0,0,0,0,0,0,0,0,
0,1956,0,0,0,0,0,0,0,0,0,0,0,0,0,0,0,0,0,0,0,0,0,0,0,1956,0,
0,1969,0,0,0,0,0,0,0,0,0,0,0,0,0,0,0,0,0,0,0,0,0,0,0,1969,0,
0,1982,0,0,0,0,0,0,0,0,0,0,0,0,0,0,0,0,0,0,0,0,0,0,0,1982,0,
0,0,0,0,0,0,0,0,0,0,0,0,0,0,0,0,0,0,0,0,0,0,0,0,0,0,0,
0,1956,0,0,0,0,0,0,0,0,0,0,0,0,0,0,0,0,0,0,0,0,0,0,0,1956,0,
0,1969,0,0,0,0,0,0,0,0,0,0,0,0,0,0,0,0,0,0,0,0,0,0,0,1969,0,
0,1982,0,0,0,0,0,0,0,0,0,0,0,0,0,0,0,0,0,0,0,0,0,0,0,1982,0,
0,0,0,0,0,0,0,0,0,0,0,0,0,0,0,0,0,0,0,0,0,0,0,0,0,0,0,
0,1956,0,0,0,0,0,0,0,0,0,0,0,0,0,0,0,0,0,0,0,0,0,0,0,1956,0,
0,1969,0,0,0,0,0,0,0,0,0,0,0,0,0,0,0,0,0,0,0,0,0,0,0,1969,0,
0,1982,0,0,0,0,0,0,0,0,0,0,0,0,0,0,0,0,0,0,0,0,0,0,0,1982,0,
0,0,0,0,0,0,0,0,0,0,0,0,0,0,0,0,0,0,0,0,0,0,0,0,0,0,0,
0,1956,0,0,0,0,0,0,0,0,0,0,0,0,0,0,0,0,0,0,0,0,0,0,0,1956,0,
0,1969,0,0,0,0,0,0,0,0,0,0,0,0,0,0,0,0,0,0,0,0,0,0,0,1969,0,
0,1982,0,0,0,0,0,0,0,0,0,0,0,0,0,0,0,0,0,0,0,0,0,0,0,1982,0,
0,0,0,0,0,0,0,0,0,0,0,0,0,0,0,0,0,0,0,0,0,0,0,0,0,0,0,
0,1956,0,0,0,0,0,0,0,0,0,0,0,0,0,0,0,0,0,0,0,0,0,0,0,1956,0,
0,1969,0,0,0,0,0,0,0,0,0,0,0,0,0,0,0,0,0,0,0,0,0,0,0,1969,0,
0,1982,0,0,0,0,0,0,0,0,0,0,0,0,0,0,0,0,0,0,0,0,0,0,0,1982,0,
0,0,0,0,0,0,0,0,0,0,0,0,0,0,0,0,0,0,0,0,0,0,0,0,0,0,0
</data>
 </layer>
 <layer id="12" name="border" width="27" height="52" visible="0">
  <data encoding="csv">
2021,2021,2021,2021,2021,2021,2021,2021,2021,2021,2021,2021,2021,2021,2021,2021,2021,2021,2021,2021,2021,2021,2021,2021,2021,2021,2021,
2021,0,0,0,0,0,0,0,0,0,0,0,0,0,0,0,0,0,0,0,0,0,0,0,0,0,2021,
2021,0,0,0,0,0,0,0,0,0,0,0,0,0,0,0,0,0,0,0,0,0,0,0,0,0,2021,
2021,0,0,0,0,0,0,0,0,0,0,0,0,0,0,0,0,0,0,0,0,0,0,0,0,0,2021,
2021,0,0,0,0,0,0,0,0,0,0,0,0,0,0,0,0,0,0,0,0,0,0,0,0,0,2021,
2021,0,0,0,0,0,0,0,0,0,0,0,0,0,0,0,0,0,0,0,0,0,0,0,0,0,2021,
2021,0,0,0,0,0,0,0,0,0,0,0,0,0,0,0,0,0,0,0,0,0,0,0,0,0,2021,
2021,2021,2021,2021,2021,2021,2021,2021,2021,2021,2021,2021,2021,2021,2021,2021,2021,2021,2021,2021,2021,2021,2021,2021,2021,0,2021,
2021,2021,2021,2021,2021,2021,2021,2021,2021,2021,2021,2021,2021,2021,2021,2021,2021,2021,2021,2021,2021,2021,2021,2021,2021,0,2021,
2021,2021,2021,2021,2021,2021,2021,2021,2021,2021,2021,2021,2021,2021,2021,2021,2021,2021,2021,2021,2021,2021,2021,2021,2021,0,2021,
2021,0,0,0,0,0,0,0,0,0,0,0,0,0,0,0,0,0,0,0,0,0,0,0,0,0,2021,
2021,2021,0,0,0,0,0,0,0,0,0,0,0,0,0,0,0,0,0,0,0,0,0,0,0,2021,2021,
2021,2021,0,0,0,0,0,0,0,0,0,0,0,0,0,0,0,0,0,0,0,0,0,0,0,2021,2021,
2021,2021,0,0,0,0,0,0,0,0,0,0,0,0,0,0,0,0,0,0,0,0,0,0,0,2021,2021,
2021,2021,0,0,0,0,0,0,0,0,0,0,0,0,0,0,0,0,0,0,0,0,0,0,0,2021,2021,
2021,2021,0,0,0,0,0,0,0,0,0,0,0,0,0,0,0,0,0,0,0,0,0,0,0,2021,2021,
2021,2021,0,0,0,0,0,0,0,0,0,0,0,0,0,0,0,0,0,0,0,0,0,0,0,2021,2021,
2021,2021,0,0,0,0,0,0,0,0,0,0,0,0,0,0,0,0,0,0,0,0,0,0,0,2021,2021,
2021,2021,0,0,0,0,0,0,0,0,0,0,0,0,0,0,0,0,0,0,0,0,0,0,0,2021,2021,
2021,2021,0,0,0,0,0,0,0,0,0,0,0,0,0,0,0,0,0,0,0,0,0,0,0,2021,2021,
2021,2021,0,0,0,0,0,0,0,0,0,0,0,0,0,0,0,0,0,0,0,0,0,0,0,2021,2021,
2021,2021,0,0,0,0,0,0,0,0,0,0,0,0,0,0,0,0,0,0,0,0,0,0,0,2021,2021,
2021,2021,0,0,0,0,0,0,0,0,0,0,0,0,0,0,0,0,0,0,0,0,0,0,0,2021,2021,
2021,2021,0,0,0,0,0,0,0,0,0,0,0,0,0,0,0,0,0,0,0,0,0,0,0,2021,2021,
2021,2021,0,0,0,0,0,0,0,0,0,0,0,0,0,0,0,0,0,0,0,0,0,0,0,2021,2021,
2021,2021,0,0,0,0,0,0,0,0,0,0,0,0,0,0,0,0,0,0,0,0,0,0,0,2021,2021,
2021,2021,0,0,0,0,0,0,0,0,0,0,0,0,0,0,0,0,0,0,0,0,0,0,0,2021,2021,
2021,2021,0,0,0,0,0,0,0,0,0,0,0,0,0,0,0,0,0,0,0,0,0,0,0,2021,2021,
2021,2021,0,0,0,0,0,0,0,0,0,0,0,0,0,0,0,0,0,0,0,0,0,0,0,2021,2021,
2021,2021,0,0,0,0,0,0,0,0,0,0,0,0,0,0,0,0,0,0,0,0,0,0,0,2021,2021,
2021,2021,0,0,0,0,0,0,0,0,0,0,0,0,0,0,0,0,0,0,0,0,0,0,0,2021,2021,
2021,2021,0,0,0,0,0,0,0,0,0,0,0,0,0,0,0,0,0,0,0,0,0,0,0,2021,2021,
2021,2021,0,0,0,0,0,0,0,0,0,0,0,0,0,0,0,0,0,0,0,0,0,0,0,2021,2021,
2021,2021,0,0,0,0,0,0,0,0,0,0,0,0,0,0,0,0,0,0,0,0,0,0,0,2021,2021,
2021,2021,0,0,0,0,0,0,0,0,0,0,0,0,0,0,0,0,0,0,0,0,0,0,0,2021,2021,
2021,2021,0,0,0,0,0,0,0,0,0,0,0,0,0,0,0,0,0,0,0,0,0,0,0,2021,2021,
2021,2021,0,0,0,0,0,0,0,0,0,0,0,0,0,0,0,0,0,0,0,0,0,0,0,2021,2021,
2021,2021,0,0,0,0,0,0,0,0,0,0,0,0,0,0,0,0,0,0,0,0,0,0,0,2021,2021,
2021,2021,0,0,0,0,0,0,0,0,0,0,0,0,0,0,0,0,0,0,0,0,0,0,0,2021,2021,
2021,2021,0,0,0,0,0,0,0,0,0,0,0,0,0,0,0,0,0,0,0,0,0,0,0,2021,2021,
2021,2021,0,0,0,0,0,0,0,0,0,0,0,0,0,0,0,0,0,0,0,0,0,0,0,2021,2021,
2021,2021,0,0,0,0,0,0,0,0,0,0,0,0,0,0,0,0,0,0,0,0,0,0,0,2021,2021,
2021,2021,0,0,0,0,0,0,0,0,0,0,0,0,0,0,0,0,0,0,0,0,0,0,0,2021,2021,
2021,2021,0,0,0,0,0,0,0,0,0,0,0,0,0,0,0,0,0,0,0,0,0,0,0,2021,2021,
2021,2021,0,0,0,0,0,0,0,0,0,0,0,0,0,0,0,0,0,0,0,0,0,0,0,2021,2021,
2021,2021,0,0,0,0,0,0,2021,0,0,0,0,0,0,0,0,0,2021,0,0,0,0,0,0,2021,2021,
2021,2021,0,0,0,0,0,0,2021,0,0,0,0,0,0,0,0,0,2021,0,0,0,0,0,0,2021,2021,
2021,2021,0,0,0,0,0,0,2021,0,0,0,0,0,0,0,0,0,2021,0,0,0,0,0,0,2021,2021,
2021,2021,0,0,0,0,0,0,2021,0,0,0,0,0,0,0,0,0,2021,0,0,0,0,0,0,2021,2021,
2021,2021,0,0,0,0,0,0,2021,0,0,0,0,0,0,0,0,0,2021,0,0,0,0,0,0,2021,2021,
2021,2021,0,0,0,0,0,0,2021,0,0,0,0,0,0,0,0,0,2021,0,0,0,0,0,0,2021,2021,
2021,2021,2021,2021,2021,2021,2021,2021,2021,2021,2021,2021,2021,2021,2021,2021,2021,2021,2021,2021,2021,2021,2021,2021,2021,2021,2021
</data>
 </layer>
</map>